X:1
T:The Number Of E Jig
M:6/8
L:1/8
R:jig
K:A
AfG gAg|GgA gcd|aFc dAB|dBe FAg|
w: 2 7 1 8 2 8  1 8 2 8 4 5  9 0 4 5 2 3  5 3 6 0 2 8  
fcf GBd|Aee Aca|ffd fAc|fFa Bea:||
w: 7 4 7 1 3 5  2 6 6 2 4 9  7 7 5 7 2 4  7 0 9 3 6 9  
|:aad adf|cae eae|feA ffA|cFf eeB|
w: 9 9 5 9 5 7  4 9 6 6 9 6  7 6 2 7 7 2  4 0 7 6 6 3  
FBd Bdc|fda cdf|GBg AGf|gdA dGe:|
w: 0 3 5 3 5 4  7 5 9 4 5 7  1 3 8 2 1 7  8 5 2 5 1 6  
